X:1
T:Title
%%score { ( 1 3 ) | ( 2 4 ) }
L:1/8
M:6/8
K:G
V:1 treble nm="Grand Piano"
V:3 treble 
V:2 bass 
V:4 bass 
V:1
 z3 z2[Q:1/4=84] [B,D] | [B,D][DB][DB] [DB][B,G][B,D] | [CE]3 [Ec]2 [Ec] | %3
 [DB][B,G][DGB] [DAd][DAc][DGB] | [FA]6 | [B,D][DB][DB] [DB][B,G][B,D] | [CE]3 [Ec]2 [Ge] | %7
 [Gd][GB][GB] [Fd][Fc][FA] |[M:5/8] [B,G]-[B,G]- [B,G]3 |[M:1/8] B |[M:3/4] d>d de dG | %11
 [DGB]>[DGB] [DGB][EGc] [DGB][B,DG] | [FA]>[FA] [FA]A GA | B6 | d>d de dB | %15
 [EA][EG] [CE][CE] [B,D][B,DG] | [FA]>[FA] [FA][Ac] [GB][FA] |[M:5/8] [B,DG]-[B,DG]- [B,DG]3 |] %18
V:2
 z3 z2 [G,,G,] | [G,,G,][G,,G,][G,,G,] [G,,G,][G,,D,][G,,G,] | [C,G,]3 [C,G,]2 [C,G,] | %3
 G,G,G, F,F,G, | D,2 D, D,2 [D,F,C] | [G,,G,][G,,G,][G,,G,] [G,,G,][G,,D,][G,,G,] | %6
 [C,G,]3 [C,G,]2 [C,C] | [D,B,][D,D][D,D] [D,A,][D,A,][D,C] |[M:5/8] [G,,G,]-[G,,G,]- [G,,G,]3 | %9
[M:1/8][K:treble] [G,DG] |[M:3/4] [G,B,G]>[G,B,G] [G,B,G][G,CG] [G,B,G][K:bass][G,B,] | %11
 G,,>G,, G,,G,, G,,G,, | [D,D]>[D,D] [D,D][K:treble][CDF] [B,D][A,DF] | G6 | %14
 [G,B,G]>[G,B,G] [G,B,G][G,CG] [G,B,G][G,DG] | [C,C][C,C] [C,G,][G,,G,] [G,,G,]G,, | %16
 [D,D]>[D,D] [D,D][D,D] [D,D][D,C] |[M:5/8] [G,,G,]-[G,,G,]- [G,,G,]3 |] %18
V:3
 x6 | x6 | x6 | x6 | D2 D D2 D | x6 | x6 | x6 |[M:5/8] x5 |[M:1/8] x |[M:3/4] x6 | x6 | x6 | %13
 z2 D D2 G | x6 | x6 | x6 |[M:5/8] x5 |] %18
V:4
 x6 | x6 | x6 | x6 | x6 | x6 | x6 | x6 |[M:5/8] x5 |[M:1/8][K:treble] x |[M:3/4] x5[K:bass] x | %11
 x6 | x3[K:treble] x3 | [G,D]2 G, G,2 [G,B,] | x6 | x6 | x6 |[M:5/8] x5 |] %18

